!!!OTL: Quartett in Es für 2 Violinen, Viola und Violoncello, 3. Satz, KV 428/03
!!!system-decoration: [(s1,s2,s3,s4)]
**kern	**kern	**kern	**kern	**kern	**kern	**kern	**kern	**kern	**kern	**kern	**kern	**kern	**kern	**kern	**kern
*part4	*part4	*part4	*part4	*part3	*part3	*part3	*part3	*part2	*part2	*part2	*part2	*part1	*part1	*part1	*part1
*staff16	*staff15	*staff14	*staff13	*staff12	*staff11	*staff10	*staff9	*staff8	*staff7	*staff6	*staff5	*staff4	*staff3	*staff2	*staff1
*I"Violoncello	*	*	*	*I"Viola	*	*	*	*I"Violino II	*	*	*	*I"Violino I	*	*	*
*clefF4	*clefC3	*clefG2	*clefG2
*k[b-e-a-]	*k[b-e-a-]	*k[b-e-a-]	*k[b-e-a-]
*M3/4	*M3/4	*M3/4	*M3/4
.	.	.	(32qGL
.	.	.	32qe-yJ
4r	4r	4r	4ee-y)
=1	=1	=1	=1
2GG	2G	2B-y	2e-y 2G
.	.	.	(32qGL
.	.	.	32qe-yJ
4r	4r	4r	4ee-y)
=2	=2	=2	=2
2AA-y	2A-y	2e-y 2c	2f 2A-y
4r	4r	4r	(8ccL
.	.	.	8b-yJ)
=3	=3	=3	=3
2.r	2.r	2.r	(8b-yL
.	.	.	8a-y)
.	.	.	(8a-y
.	.	.	8g)
.	.	.	(8a-y
.	.	.	8gJ)
=4	=4	=4	=4
2.r	2.r	2.r	(8gL
.	.	.	8f)
.	.	.	(8f
.	.	.	8e-y)
.	.	.	(8f
.	.	.	8e-yJ)
=5	=5	=5	=5
(2BB-y	2A-y	(2f	(8e-yL
.	.	.	8d)
.	.	.	(8d
.	.	.	8f
4D)	(8FL	4B-y)	8a-y
.	8A-yJ)	.	8fJ)
=6	=6	=6	=6
2E-y	(8A-yL	2B-y	(8fL
.	8B-yJ)	.	8gJ)
.	4G	.	4e-y
.	.	.	(32qGL
.	.	.	32qe-yJ
4r	4r	4r	4ee-y)
=7	=7	=7	=7
2C	2E-y	2c	2e-y 2G
.	.	.	(32qGL
.	.	.	32qe-yJ
4r	4r	4r	4ee-y)
=8	=8	=8	=8
[2.FF	2F	2An	2e-y 2c
.	4r	(8ee-yL	(8ggL
.	.	8ddJ)	8ffJ)
!!LO:LB
=9	=9	=9	=9
2.FF_	4r	(8ddL	(8ffL
.	.	8cc)	8ee-y)
.	4r	(8cc	(8ee-y
.	.	8b-y)	8dd)
.	(8gL	(8cc	(8ee-y
.	8fJ)	8b-yJ)	8ddJ)
=10	=10	=10	=10
2.FF]	(8fL	(8b-yL	(8ddL
.	8e-y)	8an)	8cc)
.	(8e-y	(8a	(8cc
.	8d)	8b-y)	8b-y)
.	(8e-y	(8a	(8cc
.	8dJ)	8b-yJ)	8b-yJ)
=11	=11	=11	=11
4F	8c'L	8e-y'L	4an
.	8B-y'	8d'	.
4r	8An'	8c'	4ff
.	8B-y'	8d'	.
4r	8c'	8e-y'	4ff
.	8A'J	8c'J	.
=12	=12	=12	=12
4BB-y	8B-y'L	8d'L	(8.ffL
.	8c'	8e-y'	.
.	.	.	32gg
.	.	.	32aanJ
4r	8d'	8f'	4bb-y)
.	8c'	8e-y'	.
4r	8d'	8f'	(8.b-yL
.	8B-y'J	8d'J	.
.	.	.	16ddJ)
=13	=13	=13	=13
4FF	8AnL	8cL	4ff
.	8B-y	8d	.
4r	8c	8e-y	4ff
.	8B-y	8d	.
4r	8c	8e-y	4ff
.	8AJ	8cJ	.
=14	=14	=14	=14
4BB-y	8B-y'L	8d'L	(8.ffL
.	8c'	8e-y'	.
.	.	.	32gg
.	.	.	32aanJ
4r	8d'	8f'	4bb-y)
.	8c'	8e-y'	.
4G	8B-y'	8d'	(8.b-yL
.	8G'J	8B-y'J	.
.	.	.	16ddJ)
=15	=15	=15	=15
4E-y	8e-y'L	8gL	(8.ccL
.	8d'	8f	.
.	.	.	32ee-y
.	.	.	32ffJ
4r	8c'	8e-y	4gg)
.	8B-y'	8d	.
4F	8c'	8e-y	(8.anL
.	8An'J	8e-yJ	.
.	.	.	16ccJ)
=16	=16	=16	=16
[2.BB-y	(8B-yL	4d	(4.b-y
.	8f	.	.
.	8d	4r	.
.	8An	.	8ccL
.	8B-y	4r	8dd
.	8cJ)	.	8ee-yJ)
=17	=17	=17	=17
2.BB-y_	[2.d [2.B-y	[2.b-y [2.f	(8ffL
.	.	.	8bb-y)
.	.	.	8ff'
.	.	.	8ee-y'
.	.	.	8dd'
.	.	.	8ee-y'J
=18	=18	=18	=18
2.BB-y_	2.d_ 2.B-y_	2.b-y_ 2.f_	(8ffL
.	.	.	8bb-y)
.	.	.	8ff'
.	.	.	8ee-y'
.	.	.	8dd'
.	.	.	8ee-y'J
=19	=19	=19	=19
2.BB-y_	2.d_ 2.B-y_	2.b-y_ 2.f_	(8ffL
.	.	.	8bb-y)
.	.	.	8ff'
.	.	.	8ee-y'
.	.	.	8dd'
.	.	.	8ee-y'J
=20	=20	=20	=20
4BB-y]	4d] 4B-y]	4b-y] 4f]	(8ffL
.	.	.	8bb-yJ)
4r	(8gL	(8b-yL	(8bb-yL
.	8f	8an	8aan
4r	8e-y	8g	8gg
.	8dJ)	8fJ)	8ffJ)
=21	=21	=21	=21
4E-y	(8dL	(8fL	(8ffL
.	8cJ)	8e-yJ)	8ee-yJ)
4F	4B-y	4d	4dd
4FF	4An	4c	4cc
!!LO:LB
=22	=22	=22	=22
4BB-y	4B-y	4B-y	(8ccL
.	.	.	8b-y)
4r	4r	4r	8b-y'
.	.	.	8b-y'
4D	4d	4f	8b-y'
.	.	.	8b-y'J
=23	=23	=23	=23
4E-y	4c	4g	(8b-yL
.	.	.	8cc)
4r	4r	4r	8cc
.	.	.	8cc
4F	4e-y	4an	8cc
.	.	.	8ddJ
=24	=24	=24	=24
4G	8dL	8b-yL	(8ccL
.	8D'	8B-y'	8b-yJ)
4r	8D'	8B-y'	4b-y
.	8D'	8B-y'	.
4GG	8D'	8B-y'	4r
.	8D'J	8B-y'J	.
=25	=25	=25	=25
4FF	(8DL	(8B-yL	2.r
.	8F)	8c)	.
4r	8F'	8c'	.
.	8F'	8c'	.
4FF	8F'	8c'	.
.	8F'J	8d'J	.
=26	=26	=26	=26
4BB-y	4D	4B-y	4r
4B-y	4r	4r	4r
=:|!	=:|!	=:|!	=:|!
4r	4r	4r	4r
=27	=27	=27	=27
8G	8B-y	8e-y	8b-y
8r	8r	8r	8r
8E-y	8B-y	8g	8ee-y
8r	8r	8r	8r
8G	8e-y	8e-y	8b-y
8r	8r	8r	8r
=28	=28	=28	=28
8A-y	8c	8e-y	8cc
8r	8r	8r	8r
8G	8B-y	8e-y	8ee-y
8r	8r	8r	8r
4r	4r	4r	4r
=29	=29	=29	=29
8A-y	8c	8e-y	8cc
8r	8r	8r	8r
8F	8B-y	8d	8a-y
8r	8r	8r	8r
8E-y	8B-y	8e-y	8g
8r	8r	8r	8r
!!LO:LB
=30	=30	=30	=30
8D	8B-y	8f	8f
8r	8r	8r	8r
8BB-y	8F	8d	8b-y
8r	8r	8r	8r
4r	4r	4r	4r
=31	=31	=31	=31
8EE-y	8B-y	8e-y	8g
8r	8r	8r	8r
8AA-y	8A-y	8c	8e-y
8r	8r	8r	8r
8FF	8c	8f	8a-y
8r	8r	8r	8r
=32	=32	=32	=32
8BB-y	8B-y	8d	8f
8r	8r	8r	8r
8GG	8d	8g	8b-y
8r	8r	8r	8r
8C	8c	8e-y	8g
8r	8r	8r	8r
=33	=33	=33	=33
8AA-y	8c	8e-y	8cc
8r	8r	8r	8r
8FF	8B-y	8d	8a-y
8r	8r	8r	8r
8EE-y	8B-y	8e-y	8g
8r	8r	8r	8r
=34	=34	=34	=34
4BB-y	8B-yL	4d	8fL
.	(8d	.	(8f
4r	8e-y	4r	8g
.	8f	.	8a-y
.	.	(<32qee-yL	.
.	.	32qggJ	.
4r	8g	4bb-y)	8b-y
.	8e-yJ)	.	8gJ)
=35	=35	=35	=35
2.r	8dL	2b-y	8fL
.	(8d	.	(8f
.	8e-y	.	8g
.	8f	.	8a-y
.	.	(<32qee-yL	.
.	.	32qggJ	.
.	8g	4bb-y)	8b-y
.	8e-yJ)	.	8gJ)
=36	=36	=36	=36
2.r	2d	2b-y	2f
.	.	.	(32qGL
.	.	.	32qe-yJ
.	4r	4r	4ee-y)
=37	=37	=37	=37
2GG	2G	2B-y	2e-y 2G
.	.	.	(32qGL
.	.	.	32qe-yJ
4r	4r	4r	4ee-y)
!!LO:LB
=38	=38	=38	=38
2AA-y	2A-y	2e-y 2c	2f 2A-y
4r	4r	4r	(8ccL
.	.	.	8b-yJ)
=39	=39	=39	=39
2.r	4r	2.r	(8b-yL
.	.	.	8a-y)
.	4r	.	(8a-y
.	.	.	8g)
.	(8cL	.	(8a-y
.	8B-yJ)	.	8gJ)
=40	=40	=40	=40
2.r	(8B-yL	2.r	(8gL
.	8A-y)	.	8f)
.	(8A-y	.	(8f
.	8G)	.	8e-y)
.	(8A-y	.	(8f
.	8GJ)	.	8e-yJ)
=41	=41	=41	=41
2.BB-y	(8GL	[2.A-y	(8e-yL
.	8F)	.	8d)
.	(8F	.	(8d
.	8D)	.	8f
.	(8F	.	8a-y
.	8DJ)	.	8fJ)
=42	=42	=42	=42
2EE-y	(8DL	(8A-yL_	(8fL
.	8E-yJ)	8GJ)	8gJ)
.	4G	4B-y	4e-y
.	.	.	(32qGL
.	.	.	32qe-yJ
4r	4r	4r	4ee-y)
=43	=43	=43	=43
2GG	2B-y 2E-y	2d-	2e-y 2G
.	.	.	(32qGL
.	.	.	32qe-yJ
4r	4r	4r	4ee-y)
=44	=44	=44	=44
2AA-y	2A-y 2E-y	2c	2e-y 2A-y
.	.	.	(32qfL
.	.	.	32qccJ
4r	4r	4r	4ff)
=45	=45	=45	=45
2AAn	2An	2e-y 2c	2f 2An
.	.	.	(32qe-yL
.	.	.	32qb-yJ
4r	4r	4r	4gg)
=46	=46	=46	=46
[2.BB-y	[2.B-y	(2e-y 2G	(2g 2B-y
.	.	4g)	4b-y)
=47	=47	=47	=47
(2.BB-y_	(2B-y_	(4g_	(4b-y_
.	.	4f	4a-y
.	4A-)	4dn)	4f)
=48	=48	=48	=48
4E-y)	8G'L	8e-y'L	4e-y
.	8G'	8B-y'	.
4r	8E-y'	8G'	4r
.	8F'	8A-y'	.
4r	8G'	8B-y'	(8.e-yL
.	8E-y'J	8G'J	.
.	.	.	16gJ)
=49	=49	=49	=49
4BB-y	8A-y'L	8f'L	4b-y
.	8G'	8e-y'	.
4r	8F'	8d'	4b-y
.	8G'	8e-y'	.
4r	8A-y'	8f'	4b-y
.	8F'J	8d'J	.
=50	=50	=50	=50
4E-y	8GL	8e-yL	(8.b-yL
.	8A-y	8f	.
.	.	.	32cc
.	.	.	32ddJ
4r	8B-y	8g	4ee-y)
.	8A-y	8f	.
4r	8B-y	8g	(8.e-yL
.	8GJ	8e-yJ	.
.	.	.	16gJ)
=51	=51	=51	=51
4BB-y	8FL	8dL	8b-yL
.	8G	8e-y	8b-y
4r	8A-y	8f	8b-y
.	8G	8e-y	8b-y
4r	8A-y	8f	8b-y
.	8FJ	8dJ	8b-yJ
=52	=52	=52	=52
4EE-y	8GL	8e-yL	(8.b-yL
.	8A-y	8f	.
.	.	.	32cc
.	.	.	32ddJ
4r	8B-y	8g	4ee-y)
.	8G	8e-y	.
4C	8G	8c	(8.e-yL
.	8E-yJ	8GJ	.
.	.	.	16gJ)
=53	=53	=53	=53
4AA-y	8A-y'L	8c'L	(8.fL
.	8G'	8B-y'	.
.	.	.	32a-y
.	.	.	32b-yJ
4r	8F'	8A-y'	4cc)
.	8E-y'	8G'	.
4BB-y	8F'	8A-y'	(8.dL
.	8D'J	8A-y'J	.
.	.	.	16fJ)
=54	=54	=54	=54
[2.EE-y	(8E-yL	4G	(4.e-y
.	8B-y	.	.
.	8G	4r	.
.	8D	.	8fL
.	8E-y	4r	8g
.	8FJ)	.	8a-yJ)
!!LO:LB
=55	=55	=55	=55
2.EE-y_	[2.G [2.E-y	[2.e-y [2.G	(8b-yL
.	.	.	8ee-yJ)
.	.	.	8b-y'L
.	.	.	8a-y'
.	.	.	8g'
.	.	.	8a-y'J
=56	=56	=56	=56
2.EE-y_	2.G_ 2.E-y_	2.e-y_ 2.G_	(8b-yL
.	.	.	8ee-yJ)
.	.	.	8b-yL
.	.	.	8a-y
.	.	.	8g
.	.	.	8a-yJ
=57	=57	=57	=57
2.EE-y_	2.G_ 2.E-y_	2.e-y_ 2.G_	(8b-yL
.	.	.	8ee-yJ)
.	.	.	8b-y'L
.	.	.	8a-y'
.	.	.	8g'
.	.	.	8a-y'J
=58	=58	=58	=58
4EE-y]	4G] 4E-y]	4e-y] 4G]	(8b-yL
.	.	.	8ee-yJ)
4r	4r	(8gL	(8ee-yL
.	.	8b-y	8dd
4E-y	4e-y	8a-y	8cc
.	.	8gJ)	8b-yJ)
=59	=59	=59	=59
4AA-y	4c	(8gL	(8b-yL
.	.	8fJ)	8a-yJ)
4BB-y	4B-y	4e-y	4g
4BB-y	4A-y	4d	4f
=60	=60	=60	=60
2.EE-y	4G	4.e-y	8e-y'L
.	.	.	8b-y'J
.	4r	.	8ee-y'L
.	.	8B-y'L	8ff'
.	8r	8e-y'	8gg'
.	8B-y	8f'J	8aa-y'J
=61	=61	=61	=61
2.EE-y	8E-y'L	8g'L	(8bb-yL
.	8F'	8a-y'	8eee-y)
.	8G'	(>8b-y	8bb-y'
.	8A-y'	8ee-y)	8aa-y'
.	(8B-y	8b-y'	8gg'
.	8e-yJ)	8a-y'J	8aa-y'J
=62	=62	=62	=62
2.EE-y	8B-y'L	8g'L	(8bb-yL
.	8A-y'	8a-y'	8eee-y)
.	8G'	(>8b-y	8bb-y'
.	8A-y'	8ee-y)	8aa-y'
.	(8B-y	8b-y'	8gg'
.	8e-yJ)	8a-y'J	8aa-y'J
!!LO:LB
=63	=63	=63	=63
2.EE-y	8B-y'L	8g'L	(8bb-yL
.	8A-y'	8a-y'	8eee-y)
.	8G'	(>8b-y	8bb-y'
.	8A-y'	8ee-y)	8aa-y'
.	(8B-y	8b-y'	8gg'
.	8e-yJ)	8a-y'J	8aa-y'J
=64	=64	=64	=64
2EE-y	(8B-yL	(8gL	(8bb-yL
.	8gJ)	8b-yJ)	8eee-yJ)
.	(8gL	(8ee-yL	(8eee-yL
.	8b-y	8dd	8ddd
4E-y	8a-y	8cc	8ccc
.	8gJ)	8b-yJ)	8bb-yJ)
=65	=65	=65	=65
4A-y	(8gL	(8b-yL	(8bb-yL
.	8fJ)	8a-yJ)	8aa-yJ)
4B-y	4e-y	4g	4gg
4BB-y	4d	4f	4ff
=66	=66	=66	=66
4E-y	4e-y	4e-y	(8ffL
.	.	.	8ee-yJ)
4r	4r	4r	8ee-y'L
.	.	.	8ee-y'
4G	4g	4b-y	8ee-y'
.	.	.	8ee-y'J
=67	=67	=67	=67
4A-y	4f	4cc	(8ee-yL
.	.	.	8ff)
4r	4r	4r	8ff'
.	.	.	8ff'
4B-y	4a-y	4dd	8ff'
.	.	.	8gg'J
=68	=68	=68	=68
4c	8gL	8ee-yL	(8ffL
.	8G'	8e-y'	8ee-yJ)
4r	8G'	8e-y'	4ee-y
.	8G'	8e-y'	.
4C	8G'	8e-y'	4r
.	8G'J	8e-y'J	.
=69	=69	=69	=69
4BB-y	(8GL	(8e-yL	2.r
.	8B-y)	8f)	.
4r	8B-y'	8f'	.
.	8B-y'	8f'	.
4BB-y	8B-y'	8f'	.
.	8B-y'J	8g'J	.
=	=	=	=
*-	*-	*-	*-
!!!RDF**kern: > = above
!!!RDF**kern: < = below
